icons/trending-down.svg

<svg width="24" height="24" viewBox="0 0 24 24" fill="none" xmlns="http://www.w3.org/2000/svg">
<path fill-rule="evenodd" clip-rule="evenodd" d="M2.29289 6.29289C2.68342 5.90237 3.31658 5.90237 3.70711 6.29289L9 11.5858L12.2929 8.29289C12.6834 7.90237 13.3166 7.90237 13.7071 8.29289L20 14.5858V10C20 9.44772 20.4477 9 21 9C21.5523 9 22 9.44772 22 10V17C22 17.5523 21.5523 18 21 18H14C13.4477 18 13 17.5523 13 17C13 16.4477 13.4477 16 14 16H18.5858L13 10.4142L9.70711 13.7071C9.31658 14.0976 8.68342 14.0976 8.29289 13.7071L2.29289 7.70711C1.90237 7.31658 1.90237 6.68342 2.29289 6.29289Z" fill="black"/>
</svg>

<svg
  width="24"
  height="24"
  viewBox="0 0 24 24"
  xmlns="http://www.w3.org/2000/svg"
>
  <path
    fill-rule="evenodd"
    clip-rule="evenodd"
    d="M2.293 6.293a1 1 0 0 1 1.414 0L9 11.586l3.293-3.293a1 1 0 0 1 1.414 0L20 14.586V10a1 1 0 1 1 2 0v7a1 1 0 0 1-1 1h-7a1 1 0 1 1 0-2h4.586L13 10.414l-3.293 3.293a1 1 0 0 1-1.414 0l-6-6a1 1 0 0 1 0-1.414z"
  />
</svg>
